!!!OTL: 1023. Nur noch einen Walzer!
!!!ARE: Europa, Mitteleuropa, Deutschland, Bayern
!!!SCT: E1023
!!!YEM: Copyright 1995, estate of Helmut Schaffrath.
**kern	**text
*ICvox	*
*M3/4	*
*k[f#]	*
*G:	*
=1	=1
!LO:TX:a:t=Walʒertakt.	!
!LO:TX:a:t=Altbayriſcher Tanʒ. 1810-1840 allbekannt.	!
{4g	Laß
4b/	doch
8b/	mei-
8b/	-ne
=2	=2
(4b	Jugend,
4dd)}	.
{8g	mei-
8g	-ne
=3	=3
4a	Ju-
4cc	-gend
4f#	florie-
=4	=4
(4a	-ren!
4g)	.
4r}	.
=5	=5
{4a	Laß
4f#	doch
4dd	der
=6	=6
8aL	Jugend
8g	.
8f#	ih-
8eJ	-ren
4d}	Lauf,
=7	=7
{4a	junge
4f#	Mädel
4dd	blühen
=8	=8
(8aL	bald
8gJ)	.
8f#L	wie-
8eJ	-der
4d}	auf.
=9	=9
{4g	Laß
4b/	doch
8b	mei-
8b	-ne
=10	=10
4b	Ju-
4dd}	-gend,
{8g	meine
8g	.
=11	=11
4a	Ju-
4cc	-gend
4f#	flo-
=12	=12
(4a	-rie-
4g)	-ren.
4r}	.
==	==
!!!AGN: Tanz - Lied, Walzer
!!!ONB: ESAC (Essen Associative Code) Database: ERK3
!!!AMT: simple triple
!!!AIN: vox
!!!EED: Helmut Schaffrath
!!!EEV: 1.0
!!!GTL: Tanz- und Spiellieder
!!!URL-scan: https://rosdok.uni-rostock.de/mcrviewer/recordIdentifier/rosdok_ppn745177662/iview2/phys_0780.iview2?x=0&y=617.2993154954165&scale=0.6479838709677419&rotation=0&layout=singlePageLayout
!!!ENC: Anna Maria Matuszewska
!!!EEV: 2024/12/23
*-	*-
